X:1
T:Düzce, 96.96 D
T:Düzce, 96.96 D
T:R. L. Tittle, 1903
T:Public Domain Courtesy of the Cyber Hymnal™
C:R. L. Tittle, 1903
Z:Public Domain
Z:Courtesy of the Cyber Hymnal™
%%score 1 ( 2 3 )
L:1/8
Q:1/4=105
M:4/4
K:Ab
V:1 treble 
V:2 bass 
V:3 bass 
V:1
 [CE]2 | [EA]3 [EA] [FB][FA][FA][DF] | [DF] [CE]4- [CE] [EA]2 | [Ec]3 [EB] [EA]2 [Ec]2 | %4
 [EB]6 [DE]2 | [CA]3 [EA] [FB][FA][FA][DF] | [DF] [CE]4- [CE] [CA]2 | [Ec]3 [DB] [CA]2 [DG]2 | %8
 [CA]6 [B,E]2 | [DB]3 [DB] [EB][EG][EA][EB] | [Ec] [Ec]4- [Ec] [Ec]2 | [EB]3 [EB] [=DB]2 [DF]2 | %12
 [EG]6 ([CA][Ec]) | [Ae]3 [Ec] [Ed][Ec][DB][CA] | [DG] [DF]4- [DF] [DF]2 | [CE]3 [Ec] [DB]2 [DG]2 | %16
 [CA]6 |] %17
V:2
 [A,,A,]2 | [A,,C]3 [A,,C] [D,D][D,D][D,D][D,A,] | [A,,A,] [A,,A,]4- [A,,A,] [A,,C]2 | %3
 [A,,A,]3 [B,,G,] [C,A,]2 [A,,A,]2 | [E,G,]6 [E,G,]2 | [A,,A,]3 [A,,C] [D,D][D,D][D,D][D,A,] | %6
 [A,,A,] [A,,A,]4- [A,,A,] [F,A,]2 | [E,A,]3 [E,G,] [E,A,]2 [E,B,]2 | [A,,A,]6 [E,G,]2 | %9
 [E,G,]3 [E,G,] [E,G,][D,B,][C,A,][E,G,] | A, A,4- A, A,2 | [E,G,]3 [E,G,] [B,,F,]2 [B,,B,]2 | %12
 [E,B,]6 A,2 | [A,C]3 A, [G,B,]A,[E,G,][F,A,] | [D,A,] [D,A,]4- [D,A,] [D,A,]2 | %15
 [E,A,]3 [E,A,] [E,G,]2 [E,B,]2 | [A,,A,]6 |] %17
V:3
 x2 | x8 | x8 | x8 | x8 | x8 | x8 | x8 | x8 | x8 | A, A,4- A, A,2 | x8 | x6 A,2 | x3 A, A, x3 | %14
 x8 | x8 | x6 |] %17

